gdscript/src/main/resources/icons/godot_editor/BoneMapHumanBody.svg

<svg width="256" height="256" viewBox="0 0 256 256" fill="none" xmlns="http://www.w3.org/2000/svg"><g clip-path="url(#clip0_1451_455)"><path d="M0 0H256V256H0V0Z" fill="#3F3F3F"/><path d="M128 134.04C129.75 142.79 130.911 150.765 131.5 162.54C132 172.54 132.5 175.29 132 179.04C130.154 192.883 133.692 225.015 134.166 230.707C134.666 236.707 132.253 236.767 131.5 242.29C130.888 246.78 151.25 246.9 147.75 240.04C141.5 227.79 147.25 219.04 148.75 184.79C148.88 181.81 146.508 172.822 148.25 161.29C151.021 142.937 150.355 134.48 149.875 124.875C149.564 116.882 149.625 110.634 147.625 90.134C147.381 87.6335 149.104 70.317 150.613 70.362C161.113 70.6745 174.942 69.1098 180.15 66.692C187.375 67.6245 204.602 63.6803 212.121 62.6605C215.757 65.0123 216.29 63.4943 221.5 64.9153C222.875 65.2903 225.834 64.5545 224.5 63.6653C222.648 62.431 219.313 61.6028 218.75 60.6653C221.438 60.0403 224.341 58.2708 227.75 57.3738C230.125 56.7488 232.467 54.4368 231.625 54.2903C228.75 53.7903 225.118 55.427 222.25 55.9153C218.319 56.5848 215.941 56.7253 213.917 57.207C213.61 57.28 213.141 57.3978 212.469 57.4465C212.469 57.4465 212.464 57.4865 212.456 57.5558C203.251 57.8043 192.375 55.1248 179.878 56.1635C171.372 55.1823 156.333 54.8735 151.5 54.7903C148.022 54.7305 136.677 54.1445 133.562 54.6653C133.395 53.6445 133.187 52.2278 133.8 50.5483C137.52 48.7368 138.597 46.0993 140.625 41.8748C140.855 42.9808 142.188 43.107 143.74 38.317C145.155 33.9475 144.32 32.7535 143.161 32.6858C143.204 32.1718 143.231 31.6595 143.24 31.1503C143.436 19.1403 141.5 10.5405 128 10.5405C114.5 10.5405 112.563 19.1403 112.76 31.1505C112.769 31.6598 112.796 32.172 112.838 32.686C111.679 32.7538 110.845 33.9478 112.26 38.3173C113.812 43.1073 115.144 42.981 115.375 41.875C117.403 46.0995 118.48 48.737 122.2 50.5485C122.812 52.228 122.604 53.6448 122.437 54.6655C119.323 54.1448 107.978 54.7308 104.5 54.7905C99.6669 54.8738 84.6284 55.1825 76.1217 56.1638C63.6249 55.125 52.7489 57.8045 43.5442 57.556C43.5359 57.4868 43.5309 57.4468 43.5309 57.4468C42.8589 57.398 42.3899 57.2803 42.0832 57.2073C40.0592 56.7255 37.6807 56.585 33.7497 55.9155C30.8822 55.4273 27.2497 53.7905 24.3747 54.2905C23.5332 54.437 25.8747 56.749 28.2497 57.374C31.6584 58.271 34.5622 60.0405 37.2497 60.6655C36.6872 61.603 33.3519 62.4313 31.4997 63.6655C30.1657 64.5548 33.1247 65.2905 34.4997 64.9155C39.7102 63.4945 40.2432 65.0125 43.8784 62.6608C51.3977 63.6805 68.6247 67.625 75.8502 66.6923C81.0582 69.11 94.8864 70.6748 105.386 70.3623C106.896 70.3173 108.619 87.6335 108.375 90.1343C106.375 110.634 106.436 116.882 106.125 124.875C105.645 134.48 104.978 142.937 107.75 161.291C109.492 172.822 107.12 181.81 107.25 184.791C108.75 219.041 114.5 227.791 108.25 240.041C104.75 246.9 125.112 246.78 124.5 242.291C123.747 236.768 121.333 236.707 121.833 230.707C122.307 225.015 125.846 192.883 124 179.041C123.5 175.291 124 172.541 124.5 162.541C125.089 150.765 126.25 142.79 128 134.04Z" fill="#B2B2B2"/></g><defs><clipPath id="clip0_1451_455"><rect width="256" height="256" fill="white"/></clipPath></defs></svg>

<svg width="256" height="256" viewBox="0 0 256 256" xmlns="http://www.w3.org/2000/svg"><path d="M0 0h256v256H0V0Z" fill="#3f3f3f"/><path d="M128 134.04c1.75 8.75 2.911 16.725 3.5 28.5.5 10 1 12.75.5 16.5-1.846 13.843 1.692 45.975 2.166 51.667.5 6-1.913 6.06-2.666 11.583-.612 4.49 19.75 4.61 16.25-2.25-6.25-12.25-.5-21 1-55.25.13-2.98-2.242-11.968-.5-23.5 2.771-18.353 2.105-26.81 1.625-36.415-.311-7.993-.25-14.241-2.25-34.741-.244-2.5 1.479-19.817 2.988-19.772 10.5.313 24.329-1.252 29.537-3.67 7.225.933 24.452-3.012 31.971-4.031 3.636 2.351 4.169.833 9.379 2.254 1.375.375 4.334-.36 3-1.25-1.852-1.234-5.187-2.062-5.75-3 2.688-.625 5.591-2.394 9-3.291 2.375-.625 4.717-2.937 3.875-3.084-2.875-.5-6.507 1.137-9.375 1.625-3.931.67-6.309.81-8.333 1.292-.307.073-.776.19-1.448.24l-.013.109c-9.205.248-20.081-2.431-32.578-1.392-8.506-.982-23.545-1.29-28.378-1.374-3.478-.06-14.823-.645-17.938-.125-.167-1.02-.375-2.437.238-4.117 3.72-1.811 4.797-4.449 6.825-8.673.23 1.106 1.563 1.232 3.115-3.558 1.415-4.37.58-5.563-.579-5.631.043-.514.07-1.026.079-1.536.196-12.01-1.74-20.61-15.24-20.61s-15.437 8.6-15.24 20.61c.009.51.036 1.022.078 1.536-1.159.068-1.993 1.262-.578 5.631 1.552 4.79 2.884 4.664 3.115 3.558 2.028 4.224 3.105 6.862 6.825 8.673.612 1.68.404 3.097.237 4.117-3.114-.52-14.459.066-17.937.126-4.833.083-19.872.392-28.378 1.373-12.497-1.039-23.373 1.64-32.578 1.392a24.54 24.54 0 0 0-.013-.11c-.672-.048-1.141-.166-1.448-.239-2.024-.482-4.402-.622-8.333-1.291-2.868-.489-6.5-2.125-9.375-1.625-.842.146 1.5 2.458 3.875 3.083 3.408.897 6.312 2.666 9 3.291-.563.938-3.898 1.766-5.75 3-1.334.89 1.625 1.625 3 1.25 5.21-1.42 5.743.097 9.378-2.254 7.52 1.02 24.747 4.964 31.972 4.031 5.208 2.418 19.036 3.983 29.536 3.67 1.51-.045 3.233 17.272 2.989 19.772-2 20.5-1.939 26.748-2.25 34.741-.48 9.605-1.147 18.062 1.625 36.416 1.742 11.531-.63 20.519-.5 23.5 1.5 34.25 7.25 43 1 55.25-3.5 6.859 16.862 6.739 16.25 2.25-.753-5.523-3.167-5.584-2.667-11.584.474-5.692 4.013-37.824 2.167-51.666-.5-3.75 0-6.5.5-16.5.589-11.776 1.75-19.751 3.5-28.501Z" fill="#b2b2b2"/></svg>
